img/choose-product.svg

<svg width="80" height="81" viewBox="0 0 80 81" fill="none" xmlns="http://www.w3.org/2000/svg">
<path d="M51.4844 35.9063C51.4844 45.1875 55.5156 52.4688 60.6563 52.4688C65.7969 52.4688 69.8281 45.1875 69.8281 35.9063C69.8281 26.625 65.7969 19.3438 60.6563 19.3438C55.5156 19.3438 51.4844 26.625 51.4844 35.9063ZM67.6406 35.9063C67.6406 43.7031 64.4375 50.2812 60.6563 50.2812C56.875 50.2812 53.6719 43.7031 53.6719 35.9063C53.6719 28.1094 56.875 21.5313 60.6563 21.5313C64.4375 21.5313 67.6406 28.125 67.6406 35.9063Z" fill="black"/>
<path d="M78.9062 0H42.4062C41.7969 0 41.3125 0.484375 41.3125 1.09375V6.53125C41.3125 6.54688 41.3125 6.5625 41.3125 6.59375C41.3125 6.60938 41.3125 6.625 41.3125 6.64063L44.5312 39.0938H43.25V38.0313C43.25 35.4219 41.4062 33.1719 38.8438 32.6563C38.6562 28.5313 37.2656 24.5469 34.8281 21.1875L32.125 17.4531C31.9219 17.1719 31.5938 17 31.25 17C30.9062 16.9844 30.5781 17.1406 30.375 17.4219L27.125 21.6719C25.0156 24.4063 21.7656 26.0156 18.3125 26.0156C14.5 26.0156 11.2656 28.8438 10.7656 32.6406C8.1875 33.125 6.3125 35.3906 6.3125 38.0156V39.0781H4.84375C4.23438 39.0781 3.75 39.5625 3.75 40.1719V47.375H1.09375C0.484375 47.375 0 47.8594 0 48.4688V60.7969C0.015625 67.6094 2.29688 74.2344 6.48438 79.6094C6.6875 79.875 7.01562 80.0313 7.34375 80.0313H42.1875C42.5312 80.0313 42.8438 79.875 43.0469 79.6094C44.7031 77.4688 46.0781 75.125 47.125 72.625V76.4063C47.125 78.3906 48.7344 80 50.7188 80H70.4688C72.4531 80 74.0625 78.3906 74.0625 76.4063V65.7656C74.125 65.6563 74.1562 65.5313 74.1719 65.4063L80 6.64063V6.59375C80 6.57813 80 6.5625 80 6.53125V1.09375C80 0.484375 79.5156 0 78.9062 0ZM8.46875 38.0313C8.46875 36.2188 9.95312 34.75 11.7656 34.75H21.0312C21.6406 34.75 22.125 34.2656 22.125 33.6563C22.125 33.0469 21.6406 32.5625 21.0312 32.5625H12.9688C13.4844 30.0469 15.7031 28.2344 18.2812 28.2188C22.4062 28.2031 26.3125 26.2813 28.8281 23.0156L31.1875 19.9375L33.0312 22.4844C35.1719 25.4219 36.4219 28.9219 36.6094 32.5625H34.5C33.8906 32.5625 33.4062 33.0469 33.4062 33.6563C33.4062 34.2656 33.8906 34.75 34.5 34.75H37.5312C37.5625 34.75 37.6094 34.75 37.6406 34.7344C37.6719 34.7344 37.7031 34.75 37.7344 34.75H37.75C39.5625 34.75 41.0312 36.2188 41.0312 38.0313V39.0938H8.46875V38.0313ZM5.90625 45.4219H19.2188C19.8281 45.4219 20.3125 44.9375 20.3125 44.3281C20.3125 43.7188 19.8281 43.2344 19.2188 43.2344H5.90625V41.2813H43.6094V43.2344H30.3125C29.7031 43.2344 29.2188 43.7188 29.2188 44.3281C29.2188 44.9375 29.7031 45.4219 30.3125 45.4219H43.625V47.3906H5.90625V45.4219ZM47.3438 60.8125C47.3438 61.375 47.3125 61.9688 47.2812 62.5469C47.2812 62.625 47.2812 62.7188 47.2656 62.7969C47.2188 63.3594 47.1719 63.9375 47.0938 64.5C46.4531 69.3438 44.5781 73.9531 41.6406 77.875H7.875C4.1875 72.9375 2.20312 66.9531 2.1875 60.8125V49.5781H47.3438V60.8125ZM71.8906 76.4063C71.8906 77.1875 71.2656 77.8125 70.4844 77.8125H50.7188C49.9375 77.8125 49.3125 77.1875 49.3125 76.4063V70.6875H71.875V76.4063H71.8906ZM71.8906 68.5H49.3125V66.3906H71.875V68.5H71.8906ZM72.0938 64.2031H49.3438C49.3438 64.125 49.3594 64.0625 49.3594 63.9844C49.4062 63.5625 49.4375 63.1406 49.4688 62.7344C49.4688 62.6094 49.4844 62.4844 49.5 62.3594C49.5312 61.8438 49.5469 61.3281 49.5469 60.8125V48.4844C49.5469 47.875 49.0625 47.3906 48.4531 47.3906H47.5625L43.625 7.625H77.7031L72.0938 64.2031ZM77.8125 5.4375H43.5V2.1875H77.8125V5.4375Z" fill="black"/>
<path d="M30.4688 32.5625H28.2812C27.6719 32.5625 27.1875 33.0468 27.1875 33.6562C27.1875 34.2656 27.6719 34.75 28.2812 34.75H30.4688C31.0781 34.75 31.5625 34.2656 31.5625 33.6562C31.5625 33.0468 31.0781 32.5625 30.4688 32.5625Z" fill="black"/>
<path d="M24.5 54.5469C15.2188 54.5469 7.9375 58.5782 7.9375 63.7188C7.9375 68.8594 15.2188 72.8907 24.5 72.8907C33.7813 72.8907 41.0625 68.8594 41.0625 63.7188C41.0625 58.5782 33.7813 54.5469 24.5 54.5469ZM24.5 70.7032C16.7031 70.7032 10.125 67.5 10.125 63.7188C10.125 59.9375 16.7031 56.7344 24.5 56.7344C32.2969 56.7344 38.875 59.9375 38.875 63.7188C38.875 67.5 32.2813 70.7032 24.5 70.7032Z" fill="black"/>
</svg>

<svg width="80" height="81" fill="none" xmlns="http://www.w3.org/2000/svg"><path d="M51.484 35.906c0 9.282 4.032 16.563 9.172 16.563 5.14 0 9.172-7.282 9.172-16.563 0-9.281-4.031-16.562-9.172-16.562-5.14 0-9.172 7.281-9.172 16.562zm16.157 0c0 7.797-3.204 14.375-6.985 14.375s-6.984-6.578-6.984-14.375 3.203-14.375 6.984-14.375c3.782 0 6.985 6.594 6.985 14.375z" fill="#000"/><path d="M78.906 0h-36.5c-.61 0-1.093.484-1.093 1.094V6.64l3.218 32.453H43.25V38.03c0-2.61-1.844-4.86-4.406-5.375a21.157 21.157 0 00-4.016-11.468l-2.703-3.735A1.088 1.088 0 0031.25 17a1.019 1.019 0 00-.875.422l-3.25 4.25a11.132 11.132 0 01-8.813 4.344 7.616 7.616 0 00-7.546 6.625 5.475 5.475 0 00-4.454 5.375v1.062H4.845c-.61 0-1.094.484-1.094 1.094v7.203H1.094c-.61 0-1.094.484-1.094 1.094v12.328a30.739 30.739 0 006.484 18.812c.204.266.532.422.86.422h34.843c.344 0 .657-.156.86-.422a30.956 30.956 0 004.078-6.984v3.781A3.594 3.594 0 0050.719 80h19.75a3.594 3.594 0 003.594-3.594v-10.64a.962.962 0 00.109-.36L80 6.641v-.047-5.5C80 .484 79.516 0 78.906 0zM8.47 38.031c0-1.812 1.484-3.281 3.297-3.281h9.265c.61 0 1.094-.484 1.094-1.094 0-.61-.484-1.093-1.094-1.093H12.97a5.45 5.45 0 015.312-4.344 13.392 13.392 0 0010.547-5.203l2.36-3.078 1.843 2.546a18.754 18.754 0 013.578 10.078H34.5c-.61 0-1.094.485-1.094 1.094 0 .61.485 1.094 1.094 1.094h3.031c.032 0 .078 0 .11-.016.03 0 .062.016.093.016h.016a3.28 3.28 0 013.281 3.281v1.063H8.47V38.03zm-2.563 7.39H19.22c.61 0 1.093-.483 1.093-1.093s-.484-1.094-1.093-1.094H5.906v-1.953H43.61v1.953H30.312c-.609 0-1.093.485-1.093 1.094 0 .61.484 1.094 1.093 1.094h13.313v1.969H5.906v-1.97zm41.438 15.392c0 .562-.032 1.156-.063 1.734 0 .078 0 .172-.015.25-.047.562-.094 1.14-.172 1.703a28.563 28.563 0 01-5.453 13.375H7.875a28.63 28.63 0 01-5.688-17.063V49.578h45.157v11.234zM71.89 76.406a1.4 1.4 0 01-1.407 1.406H50.72a1.4 1.4 0 01-1.407-1.406v-5.719h22.563v5.72h.016zm0-7.906H49.312v-2.11h22.563v2.11h.016zm.203-4.297h-22.75c0-.078.015-.14.015-.219.047-.422.078-.843.11-1.25 0-.125.015-.25.031-.375.031-.515.047-1.03.047-1.547V48.484c0-.609-.484-1.093-1.094-1.093h-.89L43.624 7.625h34.078l-5.61 56.578zm5.719-58.766H43.5v-3.25h34.313v3.25z" fill="#000"/><path d="M30.469 32.563H28.28c-.61 0-1.093.484-1.093 1.093 0 .61.484 1.094 1.093 1.094h2.188c.61 0 1.093-.484 1.093-1.094 0-.61-.484-1.093-1.093-1.093zM24.5 54.547c-9.281 0-16.563 4.031-16.563 9.172 0 5.14 7.282 9.172 16.563 9.172 9.281 0 16.563-4.032 16.563-9.172 0-5.14-7.282-9.172-16.563-9.172zm0 16.156c-7.797 0-14.375-3.203-14.375-6.984 0-3.782 6.578-6.985 14.375-6.985s14.375 3.203 14.375 6.985c0 3.781-6.594 6.984-14.375 6.984z" fill="#000"/></svg>
